app/Resources/icons/shield-user.svg

<svg xmlns="http://www.w3.org/2000/svg" viewBox="0 0 24 24"><path d="M3.78307 2.82598L12 1L20.2169 2.82598C20.6745 2.92766 21 3.33347 21 3.80217V13.7889C21 15.795 19.9974 17.6684 18.3282 18.7812L12 23L5.6718 18.7812C4.00261 17.6684 3 15.795 3 13.7889V3.80217C3 3.33347 3.32553 2.92766 3.78307 2.82598ZM12 11C13.3807 11 14.5 9.88071 14.5 8.5C14.5 7.11929 13.3807 6 12 6C10.6193 6 9.5 7.11929 9.5 8.5C9.5 9.88071 10.6193 11 12 11ZM7.52746 16H16.4725C16.2238 13.75 14.3163 12 12 12C9.68372 12 7.77619 13.75 7.52746 16Z"></path></svg>

<svg xmlns="http://www.w3.org/2000/svg" viewBox="0 0 24 24">
    <path fill="none" d="M0 0h24v24H0z"/>
    <path d="M3.783 2.826L12 1l8.217 1.826a1 1 0 0 1 .783.976v9.987a6 6 0 0 1-2.672 4.992L12 23l-6.328-4.219A6 6 0 0 1 3 13.79V3.802a1 1 0 0 1 .783-.976zM12 11a2.5 2.5 0 1 0 0-5 2.5 2.5 0 0 0 0 5zm-4.473 5h8.946a4.5 4.5 0 0 0-8.946 0z"/>
</svg>
